!!!OTL@@FUR: Sdrindulaie
!!!OTL@IT: Sdrindualaile
!!!OTL@EN: Rock the baby
**kern
*clefG2
*k[f#c#]
*D:
*M2/4
*MM115
*>[A,A]
*>A
8b
8b
=1
2a
=2
4f#
8b
8b
=3
8a
16b
16a
8g
8f#
=4
8g
8a
8cc#
8cc#
=5
2b
=6
4g
8cc#
8cc#
=7
8b
16cc#
16b
8a
8g
=8
8f#
8f#
8b
8b
=9
2a
=10
4f#
8b
8b
=11
8a
16b
16a
8g
8f#
=12
8g
8a
8cc#
8cc#
=13
2b
=14
4g
8cc#
8cc#
=15
8b
16cc#
16b
8a
8cc#
=16
4dd
==:|!
*-
!!!ARE: Friuli
!!!ENC: Kelly Leistikow
!!!END: 2002/03/07
!!!ref: @{OTL@@FUR}/@{OTL@EN}
